!!!!SEGMENT: pl-sa--55-a-i-55--001-001_wanski-jan--missa-solemnissima-kyrie.krn
!!!cenid: 18xx:339
!!!COM: Wański, Jan
!!!COM-rismID: pe30003295
!!!CDT: ~1800-1888/04
!!!CNT: Polish
!!!OPR: Missa Solemnissima
!!!OTL: Kyrie
!!!OMV: 001
!!!PDT: 1830
!!!AGN: Sacred; Mass
!!!YEC: Copyright 2022 Narodowy Instytut Fryderyka Chopina (https://polishscores.org)
!!!YEM: License CC-BY-4.0 (https://creativecommons.org/licenses/by/4.0)
!!!SMS-siglum: PL-SA
!!!SMS-shelfmark: 55/A I 55
!!!SMS-shelfwork: 001-001 M
!!!SMS-variant:
!!!SMS-altvar:
!!!NIFC-rismSourceID: 1001035335
!!!NIFC-rismChildID: 1001035335
!!!NIFC-islandoraID: none
!!!URL-pdf-islandora:
!!!URL-scan: https://bc.bdsandomierz.pl/dlibra/publication/1331/edition/1299/content @EN{Scan in the Sandomierz Diocese Digital Library} @PL{Skany w portalu Cyfrowa Biblioteka Diecezjalna w Sandomierzu}
!!!IIIF:
!!!ONB-nifc: UWAGA: części Mszy: Kyrie, Christe, Gloria, Credo, Sanctus, Pleni Sunt, Benedictus, Agnus Dei
!!!AIN: 1 alto 3 empty 1 organ 1 tenor 2 violn 1 vox
!!!key:
**kern	**fb	**kern	**dynam	**kern	**dynam	**kern	**dynam	**kern	**text	**kern	**text	**kern	**text	**kern	**text	**kern	**kern
*group	*	*group	*group	*group3	*	*group3	*	*group2	*	*group2	*	*group2	*	*group2	*	*group1	*group1
*part9	*	*part9	*	*part8	*	*part7	*	*part6	*	*part5	*	*part4	*	*part3	*	*part2	*part1
*staff10	*	*staff9	*	*staff8	*	*staff7	*	*staff6	*	*staff5	*	*staff4	*	*staff3	*	*staff2	*staff1
*Iorgan	*	*Iempty	*	*Ivioln	*	*Ivioln	*	*Iempty	*	*Itenor	*	*Ialto	*	*Ivox	*	*Iempty	*Iempty
*I"Organo.	*	*	*	*I"Violino Secundo.	*	*I"Violino Primo.	*	*I"Baſso.	*	*I"Tenore.	*	*I"Alto.	*	*I"Canto.	*	*I"Cornu Secundo. in C.	*I"Cornu Primo in C.
*I'org	*	*	*	*I'vl 2	*	*I'vl 1	*	*I'B	*	*I'T	*	*I'A	*	*I'S	*	*I'cor 2 in C	*I'cor 1 in C
*clefF4	*	*clefC1	*	*clefG2	*	*clefG2	*	*clefF4	*	*clefC4	*	*clefC3	*	*clefC1	*	*clefG2	*clefG2
*	*	*	*	*	*	*	*	*	*	*	*	*	*	*	*	*Trd0c0	*Trd0c0
*k[]	*	*k[]	*	*k[]	*	*k[]	*	*k[]	*	*k[]	*	*k[]	*	*k[]	*	*k[]	*k[]
*C:	*	*C:	*	*C:	*	*C:	*	*C:	*	*C:	*	*C:	*	*C:	*	*C:	*C:
*M4/4	*	*M4/4	*	*M4/4	*	*M4/4	*	*M4/4	*	*M4/4	*	*M4/4	*	*M4/4	*	*M4/4	*M4/4
*met(C.)	*	*met(C.)	*	*met(C.)	*	*met(C.)	*	*met(C.)	*	*met(C.)	*	*met(C.)	*	*met(C.)	*	*met(C.)	*met(C.)
=1	=1	=1	=1	=1	=1	=1	=1	=1	=1	=1	=1	=1	=1	=1	=1	=1	=1
*	*above	*	*	*	*	*	*	*	*	*	*	*	*	*	*	*	*
*	*	*	*	*	*	*	*	*	*	*	*	*2\right	*	*	*	*	*
!	!	!LO:TX:a:i:t=All(egr)o. moderato.	!	!	!	!	!	!	!	!	!	!	!	!	!	!	!LO:TX:a:i:t=Allegro.
!	!	!	!	!	!	!	!	!	!	!LO:TX:a:t=P:problem=w źródle "Kyrie" zapisane przed pierwszym taktem, na pięciolinii	!	!LO:TX:a:t=P:problem=w źródle "Kyrie" zapisane przed pierwszym taktem, na pięciolinii	!	!LO:TX:a:t=P:problem=w źródle "Kyrie" zapisane przed pierwszym taktem, na pięciolinii	!	!	!
!	!	!	!	!	!	!LO:TX:a:t=P:problem=w źródle "Kyrie" zapisane przed pierwszym taktem, na pięciolinii	!	!LO:TX:a:t=P:problem=w źródle "Kyrie" zapisane przed pierwszym taktem, na pięciolinii	!	!	!	!	!	!	!	!	!
!	!	!LO:TX:a:t=P:problem=w źródle "Kyrie" zapisane przed pierwszym taktem, na pięciolinii	!	!LO:TX:a:t=P:problem=w źródle "Kyrie" zapisane przed pierwszym taktem, na pięciolinii	!	!	!	!	!	!	!	!	!	!	!	!	!
!	!	!	!	!	!	!	!	!	!	!	!	!	!	!	!	!LO:TX:a:t=P:problem=w źródle "Kyrie" zapisane przed pierwszym taktem, na pięciolinii	!LO:TX:a:t=P:problem=w źródle "Kyrie" zapisane przed pierwszym taktem, na pięciolinii
!	!	!LO:TX:a:i:t=Kyrie	!	!LO:TX:a:i:t=Kyrie	!	!LO:TX:a:i:t=Kyrie	!	!LO:TX:a:i:t=Kyrie	!	!LO:TX:a:i:t=Kyrie	!	!LO:TX:a:i:t=Kyrie	!	!LO:TX:a:i:t=Kyrie	!	!LO:TX:a:i:t=Kyrie	!LO:TX:a:i:t=Kyrie
!	!	!LO:TX:a:i:t=Tutti.	!	!LO:TX:a:i:t=All(egr)o. moderato.	!	!LO:TX:a:i:t=All(egr)o. Moderato.	!	!LO:TX:a:i:t=Allegro moderato.	!	!LO:TX:a:i:t=Allegro moderato.	!	!LO:TX:a:i:t=All(egr)o Moderato	!	!LO:TX:a:i:t=All(egr)o. Moderato	!	!LO:TX:a:i:t=Allegro.	!
4C/	8 5 3	1ryy	.	4cc 4e 4G/	.	4cc 4e 4G/	.	4C/	Ky-	4G/	Ky-	4e\	Ky-	4cc\	Ky-	4e/	4cc\
4C/	.	.	.	4cc 4e 4G/	.	4cc 4e 4G/	.	4C/	-ri-	4G/	-ri-	4e\	-ri-	4cc\	-ri-	4e/	4cc\
4C/	.	.	.	4cc 4e 4G/	.	4cc 4e 4G/	.	4C/	-e	4G/	-e	4e\	-e	4cc\	-e	4e/	4cc\
8r	.	.	.	8r	.	8r	.	8r	.	8r	.	8r	.	8r	.	4r	4r
8G\|	.	.	.	8g/	.	8gg\	.	8G\	e-	8g\	e-	8g\	e-	8gg\	e-	.	.
=2	=2	=2	=2	=2	=2	=2	=2	=2	=2	=2	=2	=2	=2	=2	=2	=2	=2
!LO:TX:a:t=P:problem=mixed beam	!	!	!	!	!	!LO:TX:a:t=P:problem=mixed beam	!	!LO:TX:a:t=P:problem=mixed beam	!	!LO:TX:a:t=P:problem=mixed beam	!	!LO:TX:a:t=P:problem=mixed beam	!	!LO:TX:a:t=P:problem=mixed beam	!	!	!
8E\L|	.	1ryy	.	(<8e/L	.	8ee\L	.	8E\L	.	8e\L	.	8e\L	-lei-	8ee\L	-lei-	1r	1r
8G\|	.	.	.	8g/)	.	8gg\	.	8G\	-lei-	8g\	-lei-	8g\	.	8gg\	.	.	.
8GG/|	.	.	.	(<8G/	.	8g/	.	8GG/	.	8G/	.	8g\	.	8g/	.	.	.
!	!	!	!	!	!	!	!	!LO:TX:a:t=P:problem=w źródle mędzy 8BB a 4C dodatkowa kreska taktowa	!	!	!	!	!	!	!	!	!
!	!	!	!	!	!	!	!	!	!	!	!	!	!	!	!	!LO:TX:a:t=1	!LO:TX:a:t=1
8BB/J|	.	.	.	8B/J)	.	8b/J	.	8BB/J	.	8B/J	.	8B/J	.	8b/J	.	.	.
!	!	!	!	!	!	!LO:TX:a:t=P:problem=mixed beam	!	!	!	!	!	!	!	!	!	!	!
4C/	.	.	.	(<8c/L	.	8cc\L	.	4C/	-son	4c\	-son	4c\	-son	4cc\	-son	.	.
.	.	.	.	8e/)	.	8ee\	.	.	.	.	.	.	.	.	.	.	.
8r	.	.	.	(<8G/	.	8g/	.	8r	.	8r	.	8r	.	8r	.	.	.
8G\|	.	.	.	8g/J)	.	8gg\J	.	8G\	Ky-	8g\	.	8g\	Ky-	8gg\	e-	.	.
=3	=3	=3	=3	=3	=3	=3	=3	=3	=3	=3	=3	=3	=3	=3	=3	=3	=3
!LO:TX:a:t=P:problem=mixed beam	!	!	!	!	!	!LO:TX:a:t=P:problem=mixed beam	!	!LO:TX:a:t=P:problem=mixed beam	!	!LO:TX:a:t=P:problem=mixed beam	!	!LO:TX:a:t=P:problem=mixed beam	!	!LO:TX:a:t=P:problem=mixed beam	!	!	!
8E\L|	.	1ryy	.	(<8e/L	.	8ee\L	.	8E\L	-ri-	8e\L	Ky-	8e\L	-ri-	8ee\L	-lei-	2r	2r
8G\|	.	.	.	8g/)	.	8gg\	.	8G\	.	8g\	.	8g\	.	8gg\	.	.	.
8GG/|	.	.	.	(<8G/	.	8g/	.	8GG/	-e	8G/	-ri-	8g\	-e	8g/	-son	.	.
8BB/J|	.	.	.	8B/J)	.	8b/J	.	8BB/J	.	8B/J	-e	8B/J	.	8b/J	.	.	.
!	!	!	!	!	!	!	!	!	!	!LO:TX:a:t=P::problem=w źródle brak sylaby&colon; "e-"	!	!	!	!	!	!	!
8C/L	8 5 3	.	.	16e/LL	.	16cc\LL	.	4C/	e-	4c\	lei-	4c\	.	16cc\LL	Ky-	4e/	4cc\
.	.	.	.	16d/	.	16b\	.	.	.	.	.	.	.	16b\	.	.	.
8C/	.	.	.	16f/	.	16dd\	.	.	.	.	.	.	.	16dd\	.	.	.
.	.	.	.	16d/JJ	.	16b\JJ	.	.	.	.	.	.	.	16b\JJ	.	.	.
8C/	.	.	.	8e/L	.	8cc\L	.	4C/	-lei-	4G/	-son	8e\L	e-	8cc\L	-ri-	4r	4r
8C/J	.	.	.	8f/J	.	8dd\J	.	.	.	.	.	8f\J	.	8dd\J	.	.	.
=4	=4	=4	=4	=4	=4	=4	=4	=4	=4	=4	=4	=4	=4	=4	=4	=4	=4
!	!	!	!	!	!	!	!	!	!	!	!	!	!	!	!	!LO:TX:a:t=3	!LO:TX:a:t=3
8C/L	8 5 3	1ryy	.	8g/L	.	8ee\L	.	1C	-son	1c	Ky-	8g\L	-lei-	8ee\L	-e	0r	0r
8C/	.	.	.	8e/J	.	8cc\J	.	.	.	.	.	8e\J	.	8cc\J	.	.	.
8C/	X 6 4	.	.	4a/	.	4ff\	.	.	.	.	.	4a\	-son	4ff\	e-	.	.
8C/J	.	.	.	.	.	.	.	.	.	.	.	.	.	.	.	.	.
8C/L	.	.	.	4g/	.	4ee\	.	.	.	.	.	4g\	.	4ee\	-lei-	.	.
8C/	.	.	.	.	.	.	.	.	.	.	.	.	.	.	.	.	.
8C/	.	.	.	8e/L	.	8cc\L	.	.	.	.	.	8e\L	Ky-	8cc\L	-son	.	.
8C/J	.	.	.	8g/J	.	8ee\J	.	.	.	.	.	8g\J	-ri-	8ee\J	.	.	.
=5	=5	=5	=5	=5	=5	=5	=5	=5	=5	=5	=5	=5	=5	=5	=5	=5	=5
*	*	*	*	*	*	*	*	*2\right	*	*	*	*	*	*	*	*	*
8G\L	X 7 5	1ryy	.	8f/	.	8dd\	.	2G\	Ky-	8B\	-ri-	8f\	-e	8dd\	-Ky-	.	.
8G\	X 6 4	.	.	4e/	.	4cc\	.	.	.	4c\	-e	4e\	e-	4cc\	-ri-	.	.
8G\	.	.	.	.	.	.	.	.	.	.	.	.	.	.	.	.	.
!	!	!	!	!	!	!	!	!	!	!LO:TX:a:t=P::problem=w źródle brak sylaby&colon; "e-"	!	!	!	!	!	!	!
8G\J	X 5 3	.	.	8d/	.	8b\	.	.	.	8d\	lei-	8d\	-lei-	8b\	-e	.	.
8C/L	8 5 3	.	.	16e/LL	.	16cc\LL	.	2C/	-rie	2G/	-son	16e\LL	.	16cc\LL	e-	.	.
.	.	.	.	16d/	.	16b\	.	.	.	.	.	16d\	.	16b\	.	.	.
8C/	.	.	.	16f/	.	16dd\	.	.	.	.	.	16f\	.	16dd\	.	.	.
.	.	.	.	16d/JJ	.	16b\JJ	.	.	.	.	.	16d\JJ	.	16b\JJ	.	.	.
8C/	.	.	.	8e/L	.	8cc\L	.	.	.	.	.	8e\L	.	8cc\L	-lei-	.	.
8C/J	.	.	.	8f/J	.	8dd\J	.	.	.	.	.	8f\J	-son	8dd\J	.	.	.
!LO:LB:g=original	!	!LO:LB:g=original	!	!	!	!LO:LB:g=original	!	!	!	!	!	!	!	!LO:LB:g=original	!	!	!
=6	=6	=6	=6	=6	=6	=6	=6	=6	=6	=6	=6	=6	=6	=6	=6	=6	=6
8C/L	8 5 3	1ryy	.	8g/L	.	8ee\L	.	2C/	.	1c	Ky-	8g\L	Ky-	8ee\L	-son	1r	1r
8C/	.	.	.	8e/J	.	8cc\J	.	.	.	.	.	8e\J	.	8cc\J	.	.	.
8C/	X 6 4	.	.	4a/	.	4ff\	.	.	.	.	.	4a\	-ri-	4ff\	Ky-	.	.
8C/J	.	.	.	.	.	.	.	.	.	.	.	.	.	.	.	.	.
*tremolo	*	*	*	*	*	*	*	*	*	*	*	*	*	*	*	*	*
!	!	!	!	!LO:LB:g=original	!	!	!	!	!	!	!	!LO:LB:g=original	!	!	!	!	!
8C/L	8 5 3	.	.	4g/	.	4ee\	.	2C/	e-	.	.	4g\	-e	4ee\	-ri-	.	.
8C/	.	.	.	.	.	.	.	.	.	.	.	.	.	.	.	.	.
8C/	.	.	.	8e/L	.	8cc\L	.	.	.	.	.	8e\L	e-	8cc\L	.	.	.
8C/J	.	.	.	8g/J	.	8ee\J	.	.	.	.	.	8g\J	.	8ee\J	.	.	.
*Xtremolo	*	*	*	*	*	*	*	*	*	*	*	*	*	*	*	*	*
!	!	!	!	!	!	!	!	!LO:LB:g=original	!	!LO:LB:g=original	!	!	!	!	!	!	!
=7	=7	=7	=7	=7	=7	=7	=7	=7	=7	=7	=7	=7	=7	=7	=7	=7	=7
!LO:TX:a:t=P:problem=mixed beam	!	!	!	!	!	!	!	!	!	!	!	!	!	!	!	!	!
!	!	!	!	!	!	!	!	!	!	!	!LO:SIC:s=-rye	!	!	!	!	!	!
8G\L	X 7 5	1ryy	.	8f/	.	8dd\	.	2G\	-lei-	8B\	-ry	8f\	-lei-	8dd\	-e	2r	2r
8G\	.	.	.	4e/	.	4cc\	.	.	.	4c\	e-	4e\	.	4cc\	e-	.	.
8GG/	X 6 4	.	.	.	.	.	.	.	.	.	.	.	.	.	.	.	.
8GG/J	.	.	.	8d/	.	8b\	.	.	.	8d\	-lei-	8d\	.	8b\	-lei-	.	.
4C/	.	.	.	8e/L	.	8cc\L	.	4C/	-son	4G/	-son	4e\	.	8cc\	.	4e/	4cc\
.	.	.	.	8g/J	.	8g\J	.	.	.	.	.	.	.	4g\	-son	.	.
8r	.	.	.	4e/	.	4cc\	.	8r	.	8r	.	8r	.	.	.	4r	4r
8C/	.	.	.	.	.	.	.	8C/	Ky-	8G/	.	8e\	-son	8cc\	Chri-	.	.
=8	=8	=8	=8	=8	=8	=8	=8	=8	=8	=8	=8	=8	=8	=8	=8	=8	=8
4G\	X 6 4	1ryy	.	8e/L	.	8cc\L	.	4G\	-rie	4G/	Ky-	8e\L	Ky-	8cc\L	-ste	4r	4r
.	X 5 3	.	.	8d/J	.	8b\J	.	.	.	.	.	8d\J	-ri-	8b\J	e-	.	.
8r	.	.	.	4f/	.	4dd\	.	8r	.	8r	.	4f\	-e	4dd\	-lei-	2r	2r
8BB/	.	.	.	.	.	.	.	8C/	.	8B\	-rie	.	.	.	.	.	.
4C/	X 9 4	.	.	8f/L	.	8dd\L	.	4C/	e-	4G/	e	8f\L	.	8dd\L	.	.	.
.	X 8 3	.	.	8e/J	.	8cc\J	.	.	.	.	.	8e\J	e-	8cc\J	.	.	.
8r	.	.	.	4cc\	.	4ee\	.	8r	.	8r	.	4g\	-lei-	4ee\	-son	4cc\	4ee\
8C/	X 8 5	.	.	.	.	.	.	8C/	-lei-	8G/	.	.	.	.	.	.	.
=9	=9	=9	=9	=9	=9	=9	=9	=9	=9	=9	=9	=9	=9	=9	=9	=9	=9
4G\	X 6 4	1ryy	.	8cc\L	.	8ee\L	.	4G\	-son	8c\L	Ky-	4g\	-son	8ee\L	Ky-	8cc\L	8ee\L
.	X 5 3	.	.	8b\J	.	8dd\J	.	.	.	8B\J	-ri-	.	.	8b\J	.	8g\J	8b\J
8r	.	.	.	4dd\	.	4ff\	.	8r	.	4d\	-e	8r	.	4ff\	-ri-	4dd\	4ff\
8G\	X 5 3	.	.	.	.	.	.	8G\	Ky-	.	.	8g\	Ky-	.	.	.	.
!	!	!	!	!LO:TX:a:t=P:problem=mixed beam	!	!	!	!	!	!	!	!	!	!	!	!	!
!	!	!	!	!	!	!	!	!	!LO:SIC:s=-ri-e	!	!	!	!	!	!	!	!
4c\	X 9 4	.	.	8dd\L	.	8ff\L	.	4c\	-ri	8d\L	.	4g\	-ri-	8ff\L	.	8dd\L	8ff\L
.	X 8 3	.	.	8cc\	.	8ee\	.	.	.	8c\	e-	.	.	8ee\	-e	8cc\J	8ee\J
4r	.	.	.	8ee\	.	8gg\	.	4r	.	8e\	-lei-	4r	.	8gg\	e-	4r	4r
.	.	.	.	8g/J	.	8ee\J	.	.	.	8c\J	-son	.	.	8ee\J	.	.	.
=10	=10	=10	=10	=10	=10	=10	=10	=10	=10	=10	=10	=10	=10	=10	=10	=10	=10
4c\	X 5 3	1ryy	.	8g/	.	8ee\	.	4c\	e-	4c\	.	8g\	-e	8ee\	-lei-	8ee\	8gg\
.	.	.	.	4f/	.	4dd\	.	.	.	.	.	4f\	e-	4dd\	-son	4dd\	4ff\
4F\	X X 6	.	.	.	.	.	.	4F\	-lei-	4c\	Ky-	.	.	.	.	.	.
.	.	.	.	8e/	.	8cc\	.	.	.	.	.	8e\	-lei-	8cc\	.	8cc\	8ee\
!	!	!	!	!	!	!	!	!	!	!	!	!	!LO:SIC:s=-son	!	!	!	!
!	!	!	!	!LO:TX:a:t=P:problem=mixed beam	!	!	!	!	!	!	!	!	!	!	!	!	!
4G\	X 6 4	.	.	8e/L	.	8cc\L	.	4G\	-son	8c\L	-ri-	8e\L	-so	8cc\L	Ky-	4g/	8ee\L
.	X 5 3	.	.	8d/	.	8b\	.	.	.	8B\J	-e	8d\J	.	8b\	.	.	8dd\J
4r	.	.	.	8ee\	.	8gg\	.	4r	.	4r	.	4r	.	8gg\	-ri-	4r	4r
.	.	.	.	8g/J	.	8ee\J	.	.	.	.	.	.	.	8ee\J	.	.	.
!	!	!	!	!	!	!	!	!	!	!	!	!	!	!	!	!LO:LB:g=original	!LO:LB:g=original
=11	=11	=11	=11	=11	=11	=11	=11	=11	=11	=11	=11	=11	=11	=11	=11	=11	=11
4c\	X 5 3	1ryy	.	8g/	.	8ee\	.	4c\	e-	4c\	e-	8g\	e-	8ee\	-e	8ee\	8gg\
.	.	.	.	4f/	.	4dd\	.	.	.	.	.	4f\	-lei-	4dd\	e-	4dd\	4ff\
4F\	X X 6	.	.	.	.	.	.	4F\	-lei-	4A\	-lei-	.	.	.	.	.	.
.	.	.	.	8e/	.	8cc\	.	.	.	.	.	8e\	.	8cc\	-lei-	8cc\	8ee\
4G\	X 6 4	.	.	4d/	.	4b\	.	4G\	-son	4c\	-son.	4d\	-son	4b\	-son	4g/	4dd\
.	X 5 3	.	.	.	.	.	.	.	.	.	.	.	.	.	.	.	.
4r	.	.	.	4r	.	4r	.	4r	.	4r	.	4r	.	4r	.	4r	4r
=12	=12	=12	=12	=12	=12	=12	=12	=12	=12	=12	=12	=12	=12	=12	=12	=12	=12
!	!	!	!	!	!	!	!	!LO:TX:a:t=7	!	!LO:TX:a:t=7	!	!LO:TX:a:t=7.	!	!	!	!LO:TX:a:t=7	!LO:TX:a:t=7
!	!	!	!LO:DY:rj	!	!LO:DY:rj	!	!LO:DY:rj	!	!	!	!	!	!	!	!	!	!
!	!	!	!LO:DY:b=2:t=p.	!	!LO:DY:b:t=p	!	!LO:DY:b:t=p.	!	!	!	!	!	!	!	!	!	!
8D\L	X 6 4	1ryy	p	8G/L	p	8B/L	p	00r	.	00r	.	00r	.	4.dd\	Ky-	00r	00r
8D\	.	.	.	8G/	.	8B/	.	.	.	.	.	.	.	.	.	.	.
8D\	.	.	.	8G/	.	8B/	.	.	.	.	.	.	.	.	.	.	.
8D\J	.	.	.	8G/J	.	8B/J	.	.	.	.	.	.	.	8ee\	-ri-	.	.
*2\right	*	*	*	*	*	*	*	*	*	*	*	*	*	*	*	*	*
*tremolo	*	*	*	*	*	*	*	*	*	*	*	*	*	*	*	*	*
!	!	!	!	!	!	!	!	!	!	!	!	!	!	!LO:LB:g=original	!	!	!
8D\L	X 7 #	.	.	8G/L	.	8B/L	.	.	.	.	.	.	.	4dd\	-e	.	.
8D\	.	.	.	8G/	.	8B/	.	.	.	.	.	.	.	.	.	.	.
8D\	.	.	.	8A/	.	8c/	.	.	.	.	.	.	.	4f#X/	e-	.	.
8D\J	.	.	.	8A/J	.	8c/J	.	.	.	.	.	.	.	.	.	.	.
=13	=13	=13	=13	=13	=13	=13	=13	=13	=13	=13	=13	=13	=13	=13	=13	=13	=13
*	*	*	*	*tremolo	*	*tremolo	*	*	*	*	*	*	*	*	*	*	*
8D\L	X 6_ 4_	1ryy	.	8G/L	.	8B/L	.	.	.	.	.	.	.	8g/L	.	.	.
8D\	.	.	.	8G/	.	8B/	.	.	.	.	.	.	.	8d/J	-lei-	.	.
8D\	.	.	.	8G/	.	8B/	.	.	.	.	.	.	.	4d/	-son	.	.
8D\J	.	.	.	8G/J	.	8B/J	.	.	.	.	.	.	.	.	.	.	.
8D\L	.	.	.	8G/L	.	8B/L	.	.	.	.	.	.	.	2r	.	.	.
8D\	X X X	.	.	8G/	.	8B/	.	.	.	.	.	.	.	.	.	.	.
8D\	.	.	.	8G/	.	8B/	.	.	.	.	.	.	.	.	.	.	.
8D\J	.	.	.	8G/J	.	8B/J	.	.	.	.	.	.	.	.	.	.	.
*Xtremolo	*	*	*	*	*	*	*	*	*	*	*	*	*	*	*	*	*
!LO:LB:g=original	!	!LO:LB:g=original	!	!	!	!LO:LB:g=original	!	!	!	!	!	!	!	!	!	!	!
=14	=14	=14	=14	=14	=14	=14	=14	=14	=14	=14	=14	=14	=14	=14	=14	=14	=14
!LO:TX:i:t=Solo.	!	!	!	!	!	!	!	!	!	!	!	!	!	!	!	!	!
16D\LL	.	4dd\	.	8G/L	.	8B/L	.	.	.	.	.	.	.	0r	.	.	.
16B\	.	.	.	.	.	.	.	.	.	.	.	.	.	.	.	.	.
16G\	.	.	.	8G/	.	8B/	.	.	.	.	.	.	.	.	.	.	.
16B\JJ	.	.	.	.	.	.	.	.	.	.	.	.	.	.	.	.	.
*rep	*	*	*	*	*	*	*	*	*	*	*	*	*	*	*	*	*
16D\LL	.	16dd\LL	.	8G/	.	8B/	.	.	.	.	.	.	.	.	.	.	.
16B\	.	16cc#X\	.	.	.	.	.	.	.	.	.	.	.	.	.	.	.
16G\	.	16dd\	.	8G/J	.	8B/J	.	.	.	.	.	.	.	.	.	.	.
!	!	!	!	!	!	!	!	!	!	!	!	!	!	!LO:TX:a:t=2	!	!	!
16B\JJ	.	16ee\JJ	.	.	.	.	.	.	.	.	.	.	.	.	.	.	.
*Xrep	*	*	*	*	*	*	*	*	*	*	*	*	*	*	*	*	*
16D\LL	.	16dd\LL	.	8A/L	.	8c/L	.	.	.	.	.	.	.	.	.	.	.
16c\	.	16ccn\	.	.	.	.	.	.	.	.	.	.	.	.	.	.	.
16A\	.	16b\	.	8A/	.	8c/	.	.	.	.	.	.	.	.	.	.	.
16c\JJ	.	16a\JJ	.	.	.	.	.	.	.	.	.	.	.	.	.	.	.
*rep	*	*	*	*	*	*	*	*	*	*	*	*	*	*	*	*	*
16D\LL	.	16g\LL	.	8A/	.	8c/	.	.	.	.	.	.	.	.	.	.	.
16c\	.	16f#X\	.	.	.	.	.	.	.	.	.	.	.	.	.	.	.
16A\	.	16dd\	.	8A/J	.	8c/J	.	.	.	.	.	.	.	.	.	.	.
16c\JJ	.	16f#\JJ	.	.	.	.	.	.	.	.	.	.	.	.	.	.	.
*Xrep	*	*	*	*	*	*	*	*	*	*	*	*	*	*	*	*	*
!	!	!	!	!LO:LB:g=original	!	!	!	!	!	!	!	!	!	!	!	!	!
=15	=15	=15	=15	=15	=15	=15	=15	=15	=15	=15	=15	=15	=15	=15	=15	=15	=15
16D\LL	.	8g/L	.	8G/L	.	8B/L	.	.	.	.	.	.	.	.	.	.	.
16B\	.	.	.	.	.	.	.	.	.	.	.	.	.	.	.	.	.
16G\	.	8d/	.	8G/	.	8B/	.	.	.	.	.	.	.	.	.	.	.
16B\JJ	.	.	.	.	.	.	.	.	.	.	.	.	.	.	.	.	.
*rep	*	*	*	*	*	*	*	*	*	*	*	*	*	*	*	*	*
16D\LL	.	8d/	.	8G/	.	8B/	.	.	.	.	.	.	.	.	.	.	.
16B\	.	.	.	.	.	.	.	.	.	.	.	.	.	.	.	.	.
16G\	.	8d/J	.	8G/J	.	8B/J	.	.	.	.	.	.	.	.	.	.	.
16B\JJ	.	.	.	.	.	.	.	.	.	.	.	.	.	.	.	.	.
*Xrep	*	*	*	*	*	*	*	*	*	*	*	*	*	*	*	*	*
*rep	*	*	*	*	*	*	*	*	*	*	*	*	*	*	*	*	*
16D\LL	.	4d/	.	8G/L	.	8B/L	.	.	.	.	.	.	.	.	.	.	.
16B\	.	.	.	.	.	.	.	.	.	.	.	.	.	.	.	.	.
16G\	.	.	.	8G/	.	8B/	.	.	.	.	.	.	.	.	.	.	.
16B\JJ	.	.	.	.	.	.	.	.	.	.	.	.	.	.	.	.	.
*Xrep	*	*	*	*	*	*	*	*	*	*	*	*	*	*	*	*	*
*rep	*	*	*	*	*	*	*	*	*	*	*	*	*	*	*	*	*
16D\LL	.	4r	.	8G/	.	8B/	.	.	.	.	.	.	.	.	.	.	.
16B\	.	.	.	.	.	.	.	.	.	.	.	.	.	.	.	.	.
16G\	.	.	.	8G/J	.	8B/J	.	.	.	.	.	.	.	.	.	.	.
16B\JJ	.	.	.	.	.	.	.	.	.	.	.	.	.	.	.	.	.
*Xrep	*	*	*	*	*	*	*	*	*	*	*	*	*	*	*	*	*
=16	=16	=16	=16	=16	=16	=16	=16	=16	=16	=16	=16	=16	=16	=16	=16	=16	=16
8D\L	X 6_ 4_	1ryy	.	8G/L	.	8B/L	.	0r	.	0r	.	0r	.	4.dd\	Ky-	0r	0r
8D\	.	.	.	8G/	.	8B/	.	.	.	.	.	.	.	.	.	.	.
8D\	.	.	.	8G/	.	8B/	.	.	.	.	.	.	.	.	.	.	.
8D\J	.	.	.	8G/J	.	8B/J	.	.	.	.	.	.	.	8ee\	-ri-	.	.
*tremolo	*	*	*	*Xtremolo	*	*Xtremolo	*	*	*	*	*	*	*	*	*	*	*
8D\L	X 7 #	.	.	8G/L	.	8B/L	.	.	.	.	.	.	.	8dd\L	-e	.	.
8D\	.	.	.	8G/	.	8B/	.	.	.	.	.	.	.	8cc\	.	.	.
8D\	.	.	.	8A/	.	8c/	.	.	.	.	.	.	.	8a\	.	.	.
8D\J	.	.	.	8A/J	.	8c/J	.	.	.	.	.	.	.	8f#X\J	e-	.	.
=17	=17	=17	=17	=17	=17	=17	=17	=17	=17	=17	=17	=17	=17	=17	=17	=17	=17
*	*	*	*	*tremolo	*	*tremolo	*	*	*	*	*	*	*	*	*	*	*
!	!	!	!	!	!	!	!	!	!	!	!	!	!	!	!	!LO:TX:a:t=P:problem=błąd renderowania - ta pauza nie powinna się wyświetlać	!LO:TX:a:t=P:problem=błąd renderowania - ta pauza nie powinna się wyświetlać
8D\L	X 6_ 4_	1ryy	.	8G/L	.	8B/L	.	.	.	.	.	.	.	8g/L	-lei-	.	.
8D\	.	.	.	8G/	.	8B/	.	.	.	.	.	.	.	8d/J	.	.	.
8D\	.	.	.	8G/	.	8B/	.	.	.	.	.	.	.	4d/	-son	.	.
8D\J	.	.	.	8G/J	.	8B/J	.	.	.	.	.	.	.	.	.	.	.
8D\L	.	.	.	8G/L	.	8B/L	.	.	.	.	.	.	.	2r	.	.	.
8D\	X X X	.	.	8G/	.	8B/	.	.	.	.	.	.	.	.	.	.	.
8D\	.	.	.	8G/	.	8B/	.	.	.	.	.	.	.	.	.	.	.
8D\J	.	.	.	8G/J	.	8B/J	.	.	.	.	.	.	.	.	.	.	.
*Xtremolo	*	*	*	*	*	*	*	*	*	*	*	*	*	*	*	*	*
=18	=18	=18	=18	=18	=18	=18	=18	=18	=18	=18	=18	=18	=18	=18	=18	=18	=18
16D\LL	.	4dd\	.	8G/L	.	8B/L	.	1r	.	1r	.	1r	.	1r	.	1r	1r
16B\	.	.	.	.	.	.	.	.	.	.	.	.	.	.	.	.	.
16G\	.	.	.	8G/	.	8B/	.	.	.	.	.	.	.	.	.	.	.
16B\JJ	.	.	.	.	.	.	.	.	.	.	.	.	.	.	.	.	.
*rep	*	*	*	*	*	*	*	*	*	*	*	*	*	*	*	*	*
16D\LL	.	16gg\LL	.	8G/	.	8B/	.	.	.	.	.	.	.	.	.	.	.
16B\	.	16ff#X\	.	.	.	.	.	.	.	.	.	.	.	.	.	.	.
16G\	.	16ee\	.	8G/J	.	8B/J	.	.	.	.	.	.	.	.	.	.	.
!	!	!	!	!	!	!	!	!	!	!	!	!	!	!LO:TX:a:t=1	!	!	!
16B\JJ	.	16dd\JJ	.	.	.	.	.	.	.	.	.	.	.	.	.	.	.
*Xrep	*	*	*	*	*	*	*	*	*	*	*	*	*	*	*	*	*
16D\LL	.	16cc\LL	.	8A/L	.	8c/L	.	.	.	.	.	.	.	.	.	.	.
16c\	.	16b\	.	.	.	.	.	.	.	.	.	.	.	.	.	.	.
16A\	.	16a\	.	8A/	.	8c/	.	.	.	.	.	.	.	.	.	.	.
16c\JJ	.	16g\JJ	.	.	.	.	.	.	.	.	.	.	.	.	.	.	.
*rep	*	*	*	*	*	*	*	*	*	*	*	*	*	*	*	*	*
16D\LL	.	16f#X\LL	.	8A/	.	8c/	.	.	.	.	.	.	.	.	.	.	.
16c\	.	16g\	.	.	.	.	.	.	.	.	.	.	.	.	.	.	.
16A\	.	16a\	.	8A/J	.	8c/J	.	.	.	.	.	.	.	.	.	.	.
16c\JJ	.	16f#\JJ	.	.	.	.	.	.	.	.	.	.	.	.	.	.	.
*Xrep	*	*	*	*	*	*	*	*	*	*	*	*	*	*	*	*	*
*	*	*	*	*	*	*Xtremolo	*	*	*	*	*	*	*	*	*	*	*
=19	=19	=19	=19	=19	=19	=19	=19	=19	=19	=19	=19	=19	=19	=19	=19	=19	=19
16D\LL	.	8g/L	.	8G/L	.	8B/L	.	2r	.	2r	.	2r	.	4r	.	4r	2r
16B\	.	.	.	.	.	.	.	.	.	.	.	.	.	.	.	.	.
16G\	.	8d/	.	8G/	.	8B/	.	.	.	.	.	.	.	.	.	.	.
16B\JJ	.	.	.	.	.	.	.	.	.	.	.	.	.	.	.	.	.
16D\LL	.	8d/	.	8G/	.	8B/	.	.	.	.	.	.	.	2r	.	2r	.
16B\	.	.	.	.	.	.	.	.	.	.	.	.	.	.	.	.	.
16G\	.	8d/J	.	8G/J	.	8B/J	.	.	.	.	.	.	.	.	.	.	.
16B\JJ	.	.	.	.	.	.	.	.	.	.	.	.	.	.	.	.	.
*	*	*	*	*Xtremolo	*	*	*	*	*	*	*	*	*	*	*	*	*
4D\	.	4d/	.	4G/	.	4B/	.	4r	.	4r	.	4r	.	.	.	.	4r
4G\	.	4r	.	8b\L	.	8gg\L	.	4G\	Ky-	4d\	Ky-	4b\	Ky-	4gg\	Ky-	4g/	4dd\
!	!	!	!	!	!	!	!LO:DY:b:t=for	!	!	!	!	!	!	!	!	!	!
.	.	.	.	8dd\J	.	8bb\J	f	.	.	.	.	.	.	.	.	.	.
!LO:LB:g=original	!	!LO:LB:g=original	!	!	!	!	!	!	!	!	!	!	!	!	!	!	!
=20	=20	=20	=20	=20	=20	=20	=20	=20	=20	=20	=20	=20	=20	=20	=20	=20	=20
4D\	X 7 #	1ryy	.	8cc\L	.	8aa\L	.	4D\	-ri-	1d	-ri-	4a\	-ri-	4ff#X\	-ri-	4dd\	1dd
.	.	.	.	8a\	.	8ff#X\	.	.	.	.	.	.	.	.	.	.	.
4G\	.	.	.	8b\	.	8gg\	.	4G\	-e	.	.	4b\	-e	4gg\	-e	4g/	.
.	.	.	.	8dd\J	.	8bb\J	.	.	.	.	.	.	.	.	.	.	.
4D\	X 7 #	.	.	8cc\L	.	8aa\L	.	4D\	e-	.	.	4a\	e-	4ff#\	.	4dd\	.
.	.	.	.	8a\J	.	8ff#\	.	.	.	.	.	.	.	.	.	.	.
4G\	.	.	.	4b\	.	8gg\	.	4G\	.	.	.	4b\	.	4gg\	e-	4g/	.
.	.	.	.	.	.	8gg\J	.	.	.	.	.	.	.	.	.	.	.
!	!	!	!	!	!	!	!	!	!	!LO:LB:g=original	!	!	!	!	!	!	!
=21	=21	=21	=21	=21	=21	=21	=21	=21	=21	=21	=21	=21	=21	=21	=21	=21	=21
*	*	*	*	*tremolo	*	*	*	*	*	*2\right	*	*	*	*2\right	*	*2\right	*2\right
8C/L	.	1ryy	.	16a/L	.	16gg\LL	.	2C/	-lei-	2e\	-e	2a\	.	2ff\	.	2cc\	2ee\
.	.	.	.	16a/	.	16gg\	.	.	.	.	.	.	.	.	.	.	.
8C/	.	.	.	16a/	.	16gg\	.	.	.	.	.	.	.	.	.	.	.
.	.	.	.	16a/J	.	16gg\JJ	.	.	.	.	.	.	.	.	.	.	.
*	*	*	*	*	*	*tremolo	*	*	*	*	*	*	*	*	*	*	*
8C/	.	.	.	16a/L	.	16gg\L	.	.	.	.	.	.	.	.	.	.	.
.	.	.	.	16a/	.	16gg\	.	.	.	.	.	.	.	.	.	.	.
8C/J	.	.	.	16a/	.	16gg\	.	.	.	.	.	.	.	.	.	.	.
.	.	.	.	16a/J	.	16gg\J	.	.	.	.	.	.	.	.	.	.	.
8D\L	X 6 4	.	.	16b/L	.	16gg\L	.	2D/	.	2d\	elei-	4b\	-lei-	4gg\	-lei-	2dd\	2dd\
.	.	.	.	16b/	.	16gg\	.	.	.	.	.	.	.	.	.	.	.
8D\	.	.	.	16b/	.	16gg\	.	.	.	.	.	.	.	.	.	.	.
.	.	.	.	16b/J	.	16gg\J	.	.	.	.	.	.	.	.	.	.	.
8D\	X 5 #	.	.	16a/L	.	16ff#X\L	.	.	.	.	.	4a\	-son	4ff#X\	.	.	.
.	.	.	.	16a/	.	16ff#X\	.	.	.	.	.	.	.	.	.	.	.
8D\J	.	.	.	16a/	.	16ff#X\	.	.	.	.	.	.	.	.	.	.	.
.	.	.	.	16a/J	.	16ff#X\J	.	.	.	.	.	.	.	.	.	.	.
*	*	*	*	*Xtremolo	*	*Xtremolo	*	*	*	*	*	*	*	*	*	*	*
!	!	!	!	!	!	!	!	!	!	!	!	!LO:LB:g=original	!	!	!	!	!
=22	=22	=22	=22	=22	=22	=22	=22	=22	=22	=22	=22	=22	=22	=22	=22	=22	=22
!LO:TX:b:i:t=Solo	!	!	!	!	!	!	!	!	!	!	!	!	!	!	!	!	!
4GG/	.	1ryy	.	4b 4d/	.	4gg 4b 4d 4G/	.	4G\	-son	4d\	-son	4b\	.	4gg\	-son	4g/	4dd\
4r	.	.	.	16gg\LL	.	16gg\LL	.	4r	.	4r	.	4r	.	4r	.	4r	4r
.	.	.	.	16ff#X\	.	16ff#X\	.	.	.	.	.	.	.	.	.	.	.
.	.	.	.	16gg\	.	16gg\	.	.	.	.	.	.	.	.	.	.	.
.	.	.	.	16aa\JJ	.	16aa\JJ	.	.	.	.	.	.	.	.	.	.	.
8r	.	.	.	8gg\LL	.	8gg\L	.	2r	.	2r	.	2r	.	2r	.	2r	2r
.	.	.	.	.	.	.	.	.	.	.	.	.	.	.	.	.	.
8G\L	X X 10	.	.	8b\	.	8b\	.	.	.	.	.	.	.	.	.	.	.
.	.	.	.	.	.	.	.	.	.	.	.	.	.	.	.	.	.
8A\	X X 10	.	.	8cc\	.	8cc\	.	.	.	.	.	.	.	.	.	.	.
8B\J	X X 10	.	.	8dd\JJ	.	8dd\J	.	.	.	.	.	.	.	.	.	.	.
!	!	!	!	!	!	!LO:LB:g=original	!	!LO:LB:g=original	!	!	!	!	!	!	!	!	!
=23	=23	=23	=23	=23	=23	=23	=23	=23	=23	=23	=23	=23	=23	=23	=23	=23	=23
4c\	.	1ryy	.	4ee\	.	4ee\	.	0r	.	0r	.	0r	.	0r	.	4cc\	4ee\
4r	.	.	.	16gg\LL	.	16gg\LL	.	.	.	.	.	.	.	.	.	4r	4r
.	.	.	.	16ff#X\	.	16ff#X\	.	.	.	.	.	.	.	.	.	.	.
.	.	.	.	16gg\	.	16gg\	.	.	.	.	.	.	.	.	.	.	.
!	!	!	!	!	!	!	!	!LO:TX:a:t=3	!	!LO:TX:a:t=3	!	!LO:TX:a:t=3.	!	!LO:TX:a:t=3	!	!	!
.	.	.	.	16aa\JJ	.	16aa\JJ	.	.	.	.	.	.	.	.	.	.	.
8r	.	.	.	8gg\L	.	8gg\L	.	.	.	.	.	.	.	.	.	2r	2r
8c\L	X X 10_	.	.	8ee\	.	8ee\	.	.	.	.	.	.	.	.	.	.	.
8B\	.	.	.	8dd\	.	8dd\	.	.	.	.	.	.	.	.	.	.	.
8A\J	.	.	.	8cc\J	.	8cc\J	.	.	.	.	.	.	.	.	.	.	.
!	!	!	!	!LO:LB:g=original	!	!	!	!	!	!	!	!	!	!	!	!	!
=24	=24	=24	=24	=24	=24	=24	=24	=24	=24	=24	=24	=24	=24	=24	=24	=24	=24
4G\	X X X	1ryy	.	4b\	.	4b\	.	.	.	.	.	.	.	.	.	4g/	4dd\
4r	.	.	.	16gg\LL	.	16gg\LL	.	.	.	.	.	.	.	.	.	4r	4r
.	.	.	.	16ff#X\	.	16ff#X\	.	.	.	.	.	.	.	.	.	.	.
.	.	.	.	16gg\	.	16gg\	.	.	.	.	.	.	.	.	.	.	.
.	.	.	.	16aa\JJ	.	16aa\JJ	.	.	.	.	.	.	.	.	.	.	.
8r	.	.	.	8gg\L	.	8gg\L	.	.	.	.	.	.	.	.	.	2r	2r
8G\L	.	.	.	8b\	.	8b\	.	.	.	.	.	.	.	.	.	.	.
8A\	.	.	.	8cc\	.	8cc\	.	.	.	.	.	.	.	.	.	.	.
8B\J	.	.	.	8dd\J	.	8dd\J	.	.	.	.	.	.	.	.	.	.	.
=25	=25	=25	=25	=25	=25	=25	=25	=25	=25	=25	=25	=25	=25	=25	=25	=25	=25
8c\L	.	1ryy	.	8ee\L	.	8ee\L	.	1r	.	1r	.	1r	.	1r	.	4cc\	4ee\
8c\	.	.	.	8gg\J	.	8gg\J	.	.	.	.	.	.	.	.	.	.	.
8c\	.	.	.	16ff#X\LL	.	16ff#X\LL	.	.	.	.	.	.	.	.	.	4r	4r
.	.	.	.	16ee\	.	16ee\	.	.	.	.	.	.	.	.	.	.	.
8c\J	.	.	.	16dd\	.	16dd\	.	.	.	.	.	.	.	.	.	.	.
.	.	.	.	16cc\JJ	.	16cc\JJ	.	.	.	.	.	.	.	.	.	.	.
!LO:TX:a:t=P:problem=mixed bea	!	!	!	!	!	!	!	!	!	!	!	!	!	!	!	!	!
8d\L	X X 4	.	.	8b\L	.	8b\L	.	.	.	.	.	.	.	.	.	2dd\	2dd\
8d\	.	.	.	8gg\	.	8gg\J	.	.	.	.	.	.	.	.	.	.	.
8D/	X X 2	.	.	8a\	.	8a\L	.	.	.	.	.	.	.	.	.	.	.
8D/J	.	.	.	8ff#\J	.	8ff#\J	.	.	.	.	.	.	.	.	.	.	.
!	!	!	!	!	!	!	!	!	!	!	!	!	!	!	!	!LO:LB:g=original	!
=26	=26	=26	=26	=26	=26	=26	=26	=26	=26	=26	=26	=26	=26	=26	=26	=26	=26
!	!	!	!LO:DY:b=2:t=for.	!	!	!	!	!	!	!	!	!	!	!	!	!	!
4G\	.	1ryy	f	4gg 4b 4d 4G/	.	4gg 4b 4d 4G/	.	4G\	Ky-	4d\	Ky-	4b\	Ky-	4gg\	Ky-	4g/	4dd\
4G\	.	.	.	4gg 4b 4d 4G/	.	4gg 4b 4d 4G/	.	4G\	-ri-	4d\	-ri-	4b\	-ri-	4gg\	-ri-	4g/	4dd\
4G\	.	.	.	4gg 4b 4d 4G/	.	4gg 4b 4d 4G/	.	4G\	-e	4d\	-e	4b\	-e	4gg\	-e	4g/	4dd\
8r	.	.	.	8r	.	8r	.	8r	.	8r	.	8r	.	8r	.	4r	4r
8d\	.	.	.	8dd\	.	8ddd\	.	8d\	e-	8d\	e-	8dd\	e-	8dd\	e-	.	.
!LO:LB:g=original	!	!LO:LB:g=original	!	!	!	!	!	!	!	!	!	!	!	!LO:LB:g=original	!	!	!
=27	=27	=27	=27	=27	=27	=27	=27	=27	=27	=27	=27	=27	=27	=27	=27	=27	=27
!	!	!	!	!	!	!	!	!	!	!	!	!	!	!	!	!LO:TX:a:t=6	!LO:TX:a:t=6
!	!	!	!	!	!	!	!	!	!	!	!	!	!	!LO:TX:a:t=P:problem=mixed beam	!	!	!
!	!	!	!	!	!	!	!	!	!	!LO:TX:a:t=P:problem=mixed beam	!	!	!	!	!	!	!
!	!	!	!	!	!	!	!	!LO:TX:a:t=P:problem=mixed beam	!	!	!	!	!	!	!	!	!
!	!	!	!	!LO:TX:a:t=P:problem=mixed beam	!	!	!	!	!	!	!	!	!	!	!	!	!
8B\L|	.	1ryy	.	8b\L	.	8bb\L	.	8B\L	.	8B\L	.	8b\L	.	8b\L	.	00r	00r
8d\|	.	.	.	8dd\	.	8ddd\	.	8d\	-lei-	8d\	-ley-	8dd\	-lei-	8dd\	.	.	.
8D\|	.	.	.	8d/	.	8dd\	.	8D/	-son	8D/	.	8d\	.	8d/	-lei-	.	.
8F#X\J|	.	.	.	8f#X/J	.	8ff#X\J	.	8F#X/J	.	8F#X/J	.	8f#X\J	.	8f#X/J	.	.	.
4G\|	.	.	.	8g/L	.	8gg\L	.	4G\	.	4G/	-son	4g\	-son	4g\	-son	.	.
.	.	.	.	8b/	.	8bb\	.	.	.	.	.	.	.	.	.	.	.
8r	.	.	.	8d/	.	8dd\	.	8r	.	8r	.	8r	.	8r	.	.	.
8d\|	.	.	.	8dd/J	.	8ddd\J	.	8d\	Ky-	8d\	.	8dd\	Ky-	8dd\	e-	.	.
=28	=28	=28	=28	=28	=28	=28	=28	=28	=28	=28	=28	=28	=28	=28	=28	=28	=28
!	!	!	!	!	!	!	!	!	!	!	!	!	!	!LO:TX:a:t=P:problem=mixed beam	!	!	!
!	!	!	!	!	!	!	!	!	!	!LO:TX:a:t=P:problem=mixed beam	!	!	!	!	!	!	!
!	!	!	!	!	!	!	!	!LO:TX:a:t=P:problem=mixed beam	!	!	!	!	!	!	!	!	!
!	!	!	!	!LO:TX:a:t=P:problem=mixed beam	!	!	!	!	!	!	!	!	!	!	!	!	!
8B\L|	.	1ryy	.	8b\L	.	8bb\L	.	8B\L	-rie	8B\L	.	8b\L	.	8cc\L	.	.	.
8d\|	.	.	.	8dd\	.	8ddd\	.	8d\	.	8d\	Ky-	8dd\	.	8dd\	-lei-	.	.
8D\|	.	.	.	8d/	.	8dd\	.	8D/	.	8D/	-ri-	8d\	-ri-	8d/	.	.	.
8F#X\J|	.	.	.	8f#X/J	.	8ff#X\J	.	8F#X/J	e-	8F#X/J	-e	8f#X\J	.	8f#X/J	.	.	.
*tremolo	*	*	*	*	*	*	*	*	*	*	*	*	*	*	*	*	*
8G\L|	X 5 3	.	.	16b/LL	.	16gg\LL	.	4G\	.	4G/	.	4g\	-e	4g\	-son	.	.
.	.	.	.	16a/	.	16ff#\	.	.	.	.	.	.	.	.	.	.	.
8G\	.	.	.	16cc/	.	16aa\	.	.	.	.	.	.	.	.	.	.	.
.	.	.	.	16a/JJ	.	16ff#\JJ	.	.	.	.	.	.	.	.	.	.	.
8G\	.	.	.	8b/L	.	8gg\L	.	4G\	-lei-	8B\L	e-	4g\	e-	8g\L	Ky-	.	.
8G\J	.	.	.	8cc/J	.	8aa\J	.	.	.	8c\J	-lei-	.	.	8a\J	.	.	.
*Xtremolo	*	*	*	*	*	*	*	*	*	*	*	*	*	*	*	*	*
=29	=29	=29	=29	=29	=29	=29	=29	=29	=29	=29	=29	=29	=29	=29	=29	=29	=29
8G\L	X 5 3	1ryy	.	8dd\L	.	8bb\L	.	1G	-son	8d\L	-son	1g	-lei-	8b\L	-ri-	.	.
8G\	.	.	.	8b\J	.	8gg\J	.	.	.	8B\J	Ky-	.	.	8g\J	.	.	.
8G\	X 6 4	.	.	4ee\	.	4ccc\	.	.	.	4e\	-ri-	.	.	4cc\	-e	.	.
8G\J	.	.	.	.	.	.	.	.	.	.	.	.	.	.	.	.	.
*tremolo	*	*	*	*	*	*	*	*	*	*	*	*	*	*	*	*	*
!	!	!	!	!	!	!	!	!	!	!	!	!	!	!	!LO:SIC:s=e-	!	!
!	!	!	!	!	!	!LO:LB:g=original	!	!	!	!	!	!	!	!	!	!	!
8G\L	X 5 3	.	.	4dd\	.	4bb\	.	.	.	4d\	-e	.	.	4b\	.	.	.
8G\	.	.	.	.	.	.	.	.	.	.	.	.	.	.	.	.	.
8G\	.	.	.	8b\L	.	8gg\L	.	.	.	8B\L	e-	.	.	8g\L	.	.	.
8G\J	.	.	.	8dd\J	.	8bb\J	.	.	.	8e\J	.	.	.	8b\J	.	.	.
*Xtremolo	*	*	*	*	*	*	*	*	*	*	*	*	*	*	*	*	*
=30	=30	=30	=30	=30	=30	=30	=30	=30	=30	=30	=30	=30	=30	=30	=30	=30	=30
8D\L	X 7 5	1ryy	.	8cc\	.	8aa\	.	2D\	Ky-	8c\	-lei-	8f#X\	-son	8a\	-lei-	.	.
8D\	.	.	.	4b\	.	4gg\	.	.	.	4B\	-son	4g\	.	4g\	.	.	.
*	*reverse	*	*	*	*	*	*	*	*	*	*	*	*	*	*	*	*
8D\	X 6 4#	.	.	.	.	.	.	.	.	.	.	.	.	.	.	.	.
8D\J	.	.	.	8a\	.	8ff#X\	.	.	.	8A\	.	8d\	Ky-	8f#X/	-son	.	.
*tremolo	*	*	*	*	*	*	*	*	*	*	*	*	*	*	*	*	*
!	!	!	!	!	!	!	!	!	!	!LO:LB:g=original	!	!	!	!	!	!	!
8G\L	X 5 3	.	.	4b\	.	8gg\L	.	4G\	-ri-	4B\	Ky-	4g\	-ri-	4g\	Chri-	.	.
8G\	.	.	.	.	.	8dd\J	.	.	.	.	.	.	.	.	.	.	.
8G\	.	.	.	8B/L	.	8g\L	.	4G\	-e	8B\L	-ri-	4g\	-e	8g\L	.	.	.
8G\J	.	.	.	8c/J	.	8a\J	.	.	.	8c\J	-e	.	.	8a\J	-ste	.	.
*Xtremolo	*	*	*	*	*	*	*	*	*	*	*	*	*	*	*	*	*
=31	=31	=31	=31	=31	=31	=31	=31	=31	=31	=31	=31	=31	=31	=31	=31	=31	=31
!	!	!	!	!	!	!	!	!	!LO:SIC:s=e-lei-	!	!	!	!	!	!	!	!
8G\L	X 5 3	1ryy	.	8d/L	.	8b/L	.	1G	lei-	8d\L	e	1g	e-lei-	8b\L	e-	0r	0r
8G\	.	.	.	8B/J	.	8g/J	.	.	.	8A\J	.	.	.	8g\J	-lei-	.	.
8G\	X 6 4	.	.	4e/	.	4cc\	.	.	.	4e\	e-	.	.	4cc\	.	.	.
8G\J	.	.	.	.	.	.	.	.	.	.	.	.	.	.	.	.	.
*tremolo	*	*	*	*	*	*	*	*	*	*	*	*	*	*	*	*	*
!	!	!	!	!LO:LB:g=original	!	!	!	!	!	!	!	!	!	!	!	!	!
8G\L	X 5 3	.	.	4d/	.	4b\	.	.	.	4d\	-lei-	.	.	4b\	.	.	.
8G\	.	.	.	.	.	.	.	.	.	.	.	.	.	.	.	.	.
8G\	.	.	.	8B/L	.	8g/L	.	.	.	8B\L	-son	.	.	8g\L	-son	.	.
8G\J	.	.	.	8d/J	.	8b/J	.	.	.	8d\J	.	.	.	8b\J	.	.	.
*Xtremolo	*	*	*	*	*	*	*	*	*	*	*	*	*	*	*	*	*
=32	=32	=32	=32	=32	=32	=32	=32	=32	=32	=32	=32	=32	=32	=32	=32	=32	=32
8D\L	X 7 5	1ryy	.	8c/	.	8a/	.	2D\	.	8c\	Ky-	8f#X\	-son	8a\	e-	.	.
8D\	.	.	.	4B/	.	4g/	.	.	.	4B\	-ri-	4g\	e-	4g\	-lei-	.	.
8D\	X 6 4	.	.	.	.	.	.	.	.	.	.	.	.	.	.	.	.
8D\J	X 5 #	.	.	8A/	.	8f#X/	.	.	.	8A\	-e	8d\	-lei-	8f#X/	-son	.	.
4GG/	.	.	.	8B/L	.	8g\L	.	4GG/	-son	4B\	.	4d\	-son	4g\	.	.	.
.	.	.	.	8c/	.	8a\	.	.	.	.	.	.	.	.	.	.	.
4r	.	.	.	8d/	.	8b\	.	4r	.	4r	.	4r	.	4r	.	.	.
.	.	.	.	8e/J	.	8cc\J	.	.	.	.	.	.	.	.	.	.	.
!	!	!	!	!	!	!	!	!	!	!	!	!	!	!LO:LB:g=original	!	!	!LO:LB:g=original
=33	=33	=33	=33	=33	=33	=33	=33	=33	=33	=33	=33	=33	=33	=33	=33	=33	=33
4G\	7_ 5_ 3_	1ryy	.	8fn/	.	8dd\	.	4G\	e-	8B\L	e-	8fn\L	e-	8dd\L	Chri-	4g/	4dd\
.	.	.	.	4e/	.	4cc\	.	.	.	8c\J	.	8e\	.	8cc\J	.	.	.
4G\	.	.	.	.	.	.	.	4G\	-lei-	8c\L	-lei-	8e\	-lei-	4cc\	.	4g/	4dd\
.	.	.	.	8d/	.	8b\	.	.	.	8d\J	-son	8d\J	.	.	.	.	.
4C/	8 5 3	.	.	8e/L	.	8cc\L	.	4C/	-son	4G/	.	4e\	-son	8cc\L	-ste	4e/	4cc\
.	.	.	.	8f/	.	8dd\	.	.	.	.	.	.	.	8b\J	Chri-	.	.
4r	.	.	.	8g/	.	8ee\	.	4r	.	4r	.	4r	.	4cc\	-ste	4r	4r
.	.	.	.	8a/J	.	8ff#X\J	.	.	.	.	.	.	.	.	.	.	.
!LO:LB:g=original	!	!LO:LB:g=original	!	!	!	!	!	!LO:LB:g=original	!	!	!	!	!	!	!	!	!
=34	=34	=34	=34	=34	=34	=34	=34	=34	=34	=34	=34	=34	=34	=34	=34	=34	=34
*	*Xreverse	*	*	*	*	*	*	*	*	*	*	*	*	*	*	*	*
!	!	!	!	!	!	!	!	!	!	!	!	!	!	!	!	!LO:TX:a:t=2	!LO:TX:a:t=2
4C/	X 7- 3	1ryy	.	8b-X/	.	8gg\	.	4C/	Ky-	8e\L	Ky-	8b-X\L	Ky-	8gg\L	.	0r	0r
.	.	.	.	4a/	.	4ff\	.	.	.	8f\J	.	8a\	.	8ff\	.	.	.
4C/	.	.	.	.	.	.	.	4C/	.	8f\L	-ri-	8a\	-ri-	8ff\	.	.	.
.	.	.	.	8g/	.	8ee\	.	.	.	8g\J	-e	8g\J	.	8ee\J	e-	.	.
*	*	*	*	*tremolo	*	*	*	*	*	*	*	*	*	*	*	*	*
!	!	!	!	!	!	!	!	!	!	!	!	!LO:LB:g=original	!	!	!	!	!
8F\L	X 5 3	.	.	16a/L	.	16ff\LL	.	8F\L	-ri-	4c\	.	4a\	-e	4ff\	-lei-	.	.
.	.	.	.	16a/	.	16ff\	.	.	.	.	.	.	.	.	.	.	.
8G\	.	.	.	16a/	.	16ff\	.	8G\	-e	.	.	.	.	.	.	.	.
.	.	.	.	16a/J	.	16ff\JJ	.	.	.	.	.	.	.	.	.	.	.
8A\	.	.	.	16a/L	.	16ff\LL	.	8A\	.	4c\	e-	4a\	e-	4ff\	-son	.	.
.	.	.	.	16a/	.	16ff\	.	.	.	.	.	.	.	.	.	.	.
8F\J	.	.	.	16a/	.	16ff\	.	8F\J	e-	.	.	.	.	.	.	.	.
.	.	.	.	16a/J	.	16ff\JJ	.	.	.	.	.	.	.	.	.	.	.
=35	=35	=35	=35	=35	=35	=35	=35	=35	=35	=35	=35	=35	=35	=35	=35	=35	=35
*	*	*	*	*	*	*tremolo	*	*	*	*	*	*	*	*	*	*	*
8C/L	X 5 3	1ryy	.	16g/L	.	16ee\L	.	8C/L	-lei-	4e\	-lei-	2g\	-lei-	2ee\	Chri-	.	.
.	.	.	.	16g/	.	16ee\	.	.	.	.	.	.	.	.	.	.	.
8D/	.	.	.	16g/	.	16ee\	.	8D/	.	.	.	.	.	.	.	.	.
.	.	.	.	16g/J	.	16ee\J	.	.	.	.	.	.	.	.	.	.	.
8E/	.	.	.	16g/L	.	16ee\L	.	8E/	.	8c\L	-son	.	.	.	.	.	.
.	.	.	.	16g/	.	16ee\	.	.	.	.	.	.	.	.	.	.	.
8C/J	.	.	.	16g/	.	16ee\	.	8C/J	.	8e\J	.	.	.	.	.	.	.
.	.	.	.	16g/J	.	16ee\J	.	.	.	.	.	.	.	.	.	.	.
8D/L	X 5 3	.	.	16f/L	.	16ee\L	.	8D/L	.	4A\	e-	2f\	-son	4ee\	.	.	.
.	.	.	.	16f/	.	16ee\	.	.	.	.	.	.	.	.	.	.	.
8C/	.	.	.	16f/	.	16ee\	.	8C/	-son	.	.	.	.	.	.	.	.
.	.	.	.	16f/J	.	16ee\J	.	.	.	.	.	.	.	.	.	.	.
8BB/	X X 10	.	.	16f/L	.	16dd\L	.	8BB/	.	4d\	-lei-	.	.	4dd\	-ste	.	.
.	.	.	.	16f/	.	16dd\	.	.	.	.	.	.	.	.	.	.	.
8GG/J	.	.	.	16f/	.	16dd\	.	8GG/J	.	.	.	.	.	.	.	.	.
.	.	.	.	16f/J	.	16dd\J	.	.	.	.	.	.	.	.	.	.	.
!	!	!	!	!	!	!LO:LB:g=original	!	!	!	!	!	!	!	!	!	!	!
=36	=36	=36	=36	=36	=36	=36	=36	=36	=36	=36	=36	=36	=36	=36	=36	=36	=36
8C\L	X 7_ 3	1ryy	.	16f/L	.	16dd\L	.	8C/L	e-	2G/	.	4f\	e-	4cc\	e-	4r	4r
.	.	.	.	16f/	.	16dd\	.	.	.	.	.	.	.	.	.	.	.
8D\	.	.	.	16f/	.	16dd\	.	8D/	-lei-	.	.	.	.	.	.	.	.
.	.	.	.	16f/J	.	16dd\J	.	.	.	.	.	.	.	.	.	.	.
8E\	.	.	.	16e/L	.	16cc\L	.	8E/	.	.	.	4e\	-lei-	4b\	-lei-	4cc\	4ee\
.	.	.	.	16e/	.	16cc\	.	.	.	.	.	.	.	.	.	.	.
8F\J	X X 6	.	.	16e/	.	16cc\	.	8F/J	.	.	.	.	.	.	.	.	.
.	.	.	.	16e/J	.	16cc\J	.	.	.	.	.	.	.	.	.	.	.
*	*	*	*	*Xtremolo	*	*	*	*	*	*	*	*	*	*	*	*	*
4G\	X X 3	.	.	4b 4d/	.	4gg 4b 4d 4G/	.	4G\	-son	4B\	-son	4d\	-son	4a\	-son	4g/	4dd\
4r	.	.	.	4r	.	4r	.	4r	.	4r	.	4r	.	4r	.	4r	4r
*	*	*	*	*	*	*Xtremolo	*	*	*	*	*	*	*	*	*	*	*
!	!	!	!	!	!	!	!	!	!	!LO:LB:g=original	!	!	!	!	!	!	!
=37	=37	=37	=37	=37	=37	=37	=37	=37	=37	=37	=37	=37	=37	=37	=37	=37	=37
!	!	!	!	!	!	!	!	!LO:TX:a:t=P:problem=w źródle tylko 6 taktów pauzy	!	!	!	!	!	!	!	!	!
!	!	!	!	!	!	!	!	!LO:TX:a:t=6	!	!LO:TX:a:t=7	!	!LO:TX:a:t=7.	!	!	!	!LO:TX:a:t=7	!LO:TX:a:t=7
!	!	!	!LO:DY:rj	!	!	!	!LO:DY:rj	!	!	!	!	!	!	!	!	!	!
!	!	!	!LO:DY:b=2:t=p.	!	!	!	!LO:DY:b:t=p.	!	!	!	!	!	!	!	!	!	!
8G\L	X 6 4	1ryy	p	8c/L	.	8e/L	p	00r	.	00r	.	00r	.	4.gg\	Ky-	00r	00r
8G\	.	.	.	8c/	.	8e/	.	.	.	.	.	.	.	.	.	.	.
8G\	.	.	.	8c/	.	8e/	.	.	.	.	.	.	.	.	.	.	.
8G\J	.	.	.	8c/J	.	8e/J	.	.	.	.	.	.	.	8aa\	-ri-	.	.
8G\L	X 6 4	.	.	8c/L	.	8e/L	.	.	.	.	.	.	.	4gg\	-e	.	.
8G\	.	.	.	8c/	.	8e/	.	.	.	.	.	.	.	.	.	.	.
8G\	X 7 3	.	.	8d/	.	8f/	.	.	.	.	.	.	.	4b\	e-	.	.
8G\J	.	.	.	8d/J	.	8f/J	.	.	.	.	.	.	.	.	.	.	.
=38	=38	=38	=38	=38	=38	=38	=38	=38	=38	=38	=38	=38	=38	=38	=38	=38	=38
*tremolo	*	*	*	*tremolo	*	*tremolo	*	*	*	*	*	*	*	*	*	*	*
8G\L	X 6_ 4_	1ryy	.	8c/L	.	8e/L	.	.	.	.	.	.	.	8cc\L	.	.	.
8G\	.	.	.	8c/	.	8e/	.	.	.	.	.	.	.	8g\J	-lei-	.	.
8G\	.	.	.	8c/	.	8e/	.	.	.	.	.	.	.	4g\	-son	.	.
8G\J	.	.	.	8c/J	.	8e/J	.	.	.	.	.	.	.	.	.	.	.
8G\L	.	.	.	8c/L	.	8e/L	.	.	.	.	.	.	.	2r	.	.	.
8G\	X X X	.	.	8c/	.	8e/	.	.	.	.	.	.	.	.	.	.	.
8G\	.	.	.	8c/	.	8e/	.	.	.	.	.	.	.	.	.	.	.
8G\J	.	.	.	8c/J	.	8e/J	.	.	.	.	.	.	.	.	.	.	.
*Xtremolo	*	*	*	*	*	*	*	*	*	*	*	*	*	*	*	*	*
!LO:LB:g=original	!	!LO:LB:g=original	!	!	!	!	!	!	!	!	!	!	!	!	!	!	!
=39	=39	=39	=39	=39	=39	=39	=39	=39	=39	=39	=39	=39	=39	=39	=39	=39	=39
!LO:TX:a:i:t=Solo.	!	!	!	!	!	!	!	!	!	!	!	!	!	!	!	!	!
16G\LL	.	4gg\	.	8c/L	.	8e/L	.	.	.	.	.	.	.	0r	.	.	.
16e\	.	.	.	.	.	.	.	.	.	.	.	.	.	.	.	.	.
16c\	.	.	.	8c/	.	8e/	.	.	.	.	.	.	.	.	.	.	.
16e\JJ	.	.	.	.	.	.	.	.	.	.	.	.	.	.	.	.	.
*rep	*	*	*	*	*	*	*	*	*	*	*	*	*	*	*	*	*
16G\LL	.	16gg\LL	.	8c/	.	8e/	.	.	.	.	.	.	.	.	.	.	.
16e\	.	16ff#X\	.	.	.	.	.	.	.	.	.	.	.	.	.	.	.
16c\	.	16gg\	.	8c/J	.	8e/J	.	.	.	.	.	.	.	.	.	.	.
!	!	!	!	!	!	!	!	!	!	!	!	!	!	!LO:TX:a:t=2	!	!	!
16e\JJ	.	16aa\JJ	.	.	.	.	.	.	.	.	.	.	.	.	.	.	.
*Xrep	*	*	*	*	*	*	*	*	*	*	*	*	*	*	*	*	*
16G\LL	.	16gg\LL	.	8d/L	.	8f/L	.	.	.	.	.	.	.	.	.	.	.
16f\	.	16ffn\	.	.	.	.	.	.	.	.	.	.	.	.	.	.	.
16d\	.	16ee\	.	8d/	.	8f/	.	.	.	.	.	.	.	.	.	.	.
16f\JJ	.	16dd\JJ	.	.	.	.	.	.	.	.	.	.	.	.	.	.	.
*rep	*	*	*	*	*	*	*	*	*	*	*	*	*	*	*	*	*
16G\LL	.	16cc\LL	.	8d/	.	8f/	.	.	.	.	.	.	.	.	.	.	.
16f\	.	16b\	.	.	.	.	.	.	.	.	.	.	.	.	.	.	.
16d\	.	16dd\	.	8d/J	.	8f/J	.	.	.	.	.	.	.	.	.	.	.
16f\JJ	.	16b\JJ	.	.	.	.	.	.	.	.	.	.	.	.	.	.	.
*Xrep	*	*	*	*	*	*	*	*	*	*	*	*	*	*	*	*	*
=40	=40	=40	=40	=40	=40	=40	=40	=40	=40	=40	=40	=40	=40	=40	=40	=40	=40
16G\LL	.	8cc\L	.	8c/L	.	8e/L	.	.	.	.	.	.	.	.	.	.	.
16e\	.	.	.	.	.	.	.	.	.	.	.	.	.	.	.	.	.
16c\	.	8g\	.	8c/	.	8e/	.	.	.	.	.	.	.	.	.	.	.
16e\JJ	.	.	.	.	.	.	.	.	.	.	.	.	.	.	.	.	.
*rep	*	*	*	*	*	*	*	*	*	*	*	*	*	*	*	*	*
16G\LL	.	8g\	.	8c/	.	8e/	.	.	.	.	.	.	.	.	.	.	.
16e\	.	.	.	.	.	.	.	.	.	.	.	.	.	.	.	.	.
16c\	.	8g\J	.	8c/J	.	8e/J	.	.	.	.	.	.	.	.	.	.	.
16e\JJ	.	.	.	.	.	.	.	.	.	.	.	.	.	.	.	.	.
*Xrep	*	*	*	*	*	*	*	*	*	*	*	*	*	*	*	*	*
*rep	*	*	*	*	*	*	*	*	*	*	*	*	*	*	*	*	*
16G\LL	.	4g\	.	8c/L	.	8e/L	.	.	.	.	.	.	.	.	.	.	.
16e\	.	.	.	.	.	.	.	.	.	.	.	.	.	.	.	.	.
16c\	.	.	.	8c/	.	8e/	.	.	.	.	.	.	.	.	.	.	.
16e\JJ	.	.	.	.	.	.	.	.	.	.	.	.	.	.	.	.	.
*Xrep	*	*	*	*	*	*	*	*	*	*	*	*	*	*	*	*	*
*rep	*	*	*	*	*	*	*	*	*	*	*	*	*	*	*	*	*
16G\LL	.	4r	.	8c/	.	8e/	.	.	.	.	.	.	.	.	.	.	.
16e\	.	.	.	.	.	.	.	.	.	.	.	.	.	.	.	.	.
16c\	.	.	.	8c/J	.	8e/J	.	.	.	.	.	.	.	.	.	.	.
16e\JJ	.	.	.	.	.	.	.	.	.	.	.	.	.	.	.	.	.
*Xrep	*	*	*	*	*	*	*	*	*	*	*	*	*	*	*	*	*
=41	=41	=41	=41	=41	=41	=41	=41	=41	=41	=41	=41	=41	=41	=41	=41	=41	=41
8G\L	X 6 4_	1ryy	.	8c/L	.	8e/L	.	0r	.	0r	.	0r	.	4.gg\	Ky-	0r	0r
8G\	.	.	.	8c/	.	8e/	.	.	.	.	.	.	.	.	.	.	.
8G\	.	.	.	8c/	.	8e/	.	.	.	.	.	.	.	.	.	.	.
8G\J	.	.	.	8c/J	.	8e/J	.	.	.	.	.	.	.	8gg\	-ri-	.	.
*tremolo	*	*	*	*Xtremolo	*	*Xtremolo	*	*	*	*	*	*	*	*	*	*	*
!	!	!	!	!LO:LB:g=original	!	!	!	!	!	!	!	!	!	!	!	!	!
8G\L	X 7 3	.	.	8c/L	.	8e/L	.	.	.	.	.	.	.	8gg\L	-e	.	.
8G\	.	.	.	8c/	.	8e/	.	.	.	.	.	.	.	8ff\	.	.	.
8G\	.	.	.	8d/	.	8f/	.	.	.	.	.	.	.	8dd\	e-	.	.
8G\J	.	.	.	8d/J	.	8f/J	.	.	.	.	.	.	.	8b\J	.	.	.
!	!	!	!	!	!	!	!	!	!	!	!	!	!	!LO:LB:g=original	!	!	!
=42	=42	=42	=42	=42	=42	=42	=42	=42	=42	=42	=42	=42	=42	=42	=42	=42	=42
*	*	*	*	*tremolo	*	*tremolo	*	*	*	*	*	*	*	*	*	*	*
!	!	!	!	!	!	!	!	!	!	!	!	!	!	!	!	!LO:TX:a:t=P:problem=błąd renderowania - ta pauza nie powinna się wyświetlać	!LO:TX:a:t=P:problem=błąd renderowania - ta pauza nie powinna się wyświetlać
8G\L	.	1ryy	.	8c/L	.	8e/L	.	.	.	.	.	.	.	8cc\L	-lei-	.	.
8G\	.	.	.	8c/	.	8e/	.	.	.	.	.	.	.	8g\J	.	.	.
8G\	.	.	.	8c/	.	8e/	.	.	.	.	.	.	.	4g\	-son	.	.
8G\J	.	.	.	8c/J	.	8e/J	.	.	.	.	.	.	.	.	.	.	.
8G\L	.	.	.	8c/L	.	8e/L	.	.	.	.	.	.	.	2r	.	.	.
8G\	.	.	.	8c/	.	8e/	.	.	.	.	.	.	.	.	.	.	.
8G\	.	.	.	8c/	.	8e/	.	.	.	.	.	.	.	.	.	.	.
8G\J	.	.	.	8c/J	.	8e/J	.	.	.	.	.	.	.	.	.	.	.
*Xtremolo	*	*	*	*	*	*	*	*	*	*	*	*	*	*	*	*	*
=43	=43	=43	=43	=43	=43	=43	=43	=43	=43	=43	=43	=43	=43	=43	=43	=43	=43
16E\LL	.	4gg	.	8c/L	.	8e/L	.	1ryy	.	1r	.	1r	.	1r	.	1r	1r
16e\	.	.	.	.	.	.	.	.	.	.	.	.	.	.	.	.	.
16c\	.	.	.	8c/	.	8e/	.	.	.	.	.	.	.	.	.	.	.
16e\JJ	.	.	.	.	.	.	.	.	.	.	.	.	.	.	.	.	.
*rep	*	*	*	*	*	*	*	*	*	*	*	*	*	*	*	*	*
16E\LL	.	16cccL	.	8c/	.	8e/	.	.	.	.	.	.	.	.	.	.	.
16e\	.	16bb	.	.	.	.	.	.	.	.	.	.	.	.	.	.	.
16c\	.	16aa	.	8c/J	.	8e/J	.	.	.	.	.	.	.	.	.	.	.
!	!	!	!	!	!	!	!	!	!	!	!	!	!	!LO:TX:a:t=1	!	!	!
16e\JJ	.	16ggJ	.	.	.	.	.	.	.	.	.	.	.	.	.	.	.
*Xrep	*	*	*	*	*	*	*	*	*	*	*	*	*	*	*	*	*
16G\LL	.	16ffL	.	8d/L	.	8f/L	.	.	.	.	.	.	.	.	.	.	.
16f\	.	16ee	.	.	.	.	.	.	.	.	.	.	.	.	.	.	.
16d\	.	16dd	.	8d/	.	8f/	.	.	.	.	.	.	.	.	.	.	.
16f\JJ	.	16ccJ	.	.	.	.	.	.	.	.	.	.	.	.	.	.	.
*rep	*	*	*	*	*	*	*	*	*	*	*	*	*	*	*	*	*
16G\LL	.	16bL	.	8d/	.	8f/	.	.	.	.	.	.	.	.	.	.	.
16f\	.	16cc	.	.	.	.	.	.	.	.	.	.	.	.	.	.	.
16d\	.	16dd	.	8d/J	.	8f/J	.	.	.	.	.	.	.	.	.	.	.
16f\JJ	.	16bJ	.	.	.	.	.	.	.	.	.	.	.	.	.	.	.
*Xrep	*	*	*	*	*	*	*	*	*	*	*	*	*	*	*	*	*
=44	=44	=44	=44	=44	=44	=44	=44	=44	=44	=44	=44	=44	=44	=44	=44	=44	=44
16E\LL	.	8ccL	.	8c/L	.	8e/L	.	2r	.	2r	.	2r	.	2r	.	4r	4r
16e\	.	.	.	.	.	.	.	.	.	.	.	.	.	.	.	.	.
16c\	.	8g	.	8c/	.	8e/	.	.	.	.	.	.	.	.	.	.	.
16e\JJ	.	.	.	.	.	.	.	.	.	.	.	.	.	.	.	.	.
16E\LL	.	8g	.	8c/	.	8e/	.	.	.	.	.	.	.	.	.	2r	4r
16e\	.	.	.	.	.	.	.	.	.	.	.	.	.	.	.	.	.
16c\	.	8gJ	.	8c/J	.	8e/J	.	.	.	.	.	.	.	.	.	.	.
16e\JJ	.	.	.	.	.	.	.	.	.	.	.	.	.	.	.	.	.
*	*	*	*	*Xtremolo	*	*Xtremolo	*	*	*	*	*	*	*	*	*	*	*
!	!	!LO:N:vis=4	!	!	!	!	!	!	!	!	!	!	!	!	!	!	!
4G\	.	4g	.	4c/	.	4e/	.	4r	.	4r	.	4r	.	4r	.	.	4r
.	8 5 3	.	.	.	.	.	.	.	.	.	.	.	.	.	.	.	.
4C/	.	4r	.	8cc\L	.	8ee\L	.	4C/	Ky-	4e\	Ky-	4g\	Ky-	4ee\	Ky-	8cc\L	8ee\L
.	.	.	.	8ee\J	.	8gg\J	.	.	.	.	.	.	.	.	.	8ee\J	8gg\J
!LO:LB:g=original	!	!LO:LB:g=original	!	!	!	!	!	!	!	!	!	!	!	!	!	!	!
=45	=45	=45	=45	=45	=45	=45	=45	=45	=45	=45	=45	=45	=45	=45	=45	=45	=45
!	!	!	!	!	!	!	!LO:DY:b:t=for.	!	!	!	!	!	!	!	!	!	!
4G\	X X 7	1ryy	.	8ee\L	.	8gg\L	f	4G\	-rie	8g\L	-ri-	4g\	-ri-	8ee\L	-ri-	8ee\L	8gg\L
.	.	.	.	8dd\	.	8ff\	.	.	.	8f\J	-e	.	.	8dd\J	.	8dd\	8ff\
4C/	.	.	.	8cc\	.	8ee\	.	8C/L	e-	8e\	.	8g\	-e	8cc\	-e	8cc\	8ee\
.	.	.	.	8ee\J	.	8gg\J	.	8C/J	.	8e\	e-	8g\	e-	8ee\	e-	8ee\J	8gg\J
4G\	X X 7	.	.	8ee\L	.	8gg\L	.	4G\	-lei-	8g\L	.	4g\	-lei-	8ee\	-lei-	8ee\L	8gg\L
.	.	.	.	8dd\	.	8ff\	.	.	.	8f\J	-lei-	.	.	8dd\	.	8dd\J	8ff\J
4C/	.	.	.	8cc\	.	8ee\	.	8C/L	.	8e\	-son	8g\	.	8cc\	-son	4cc\	4ee\
.	.	.	.	8ee\J	.	8ccc\J	.	8C/J	-son	8e\	.	8g\	-son	8cc\	.	.	.
!	!	!	!	!	!	!LO:LB:g=original	!	!	!	!	!	!	!	!	!	!	!
=46	=46	=46	=46	=46	=46	=46	=46	=46	=46	=46	=46	=46	=46	=46	=46	=46	=46
*	*	*	*	*tremolo	*	*tremolo	*	*	*	*	*	*	*	*	*	*	*
8F\L	X X 6	1ryy	.	16ee\L	.	16ccc\L	.	2F\	e-	2d\	e-	2a\	Ky-	1dd	Chri-	2r	2r
.	.	.	.	16ee\	.	16ccc\	.	.	.	.	.	.	.	.	.	.	.
8F\	.	.	.	16ee\	.	16ccc\	.	.	.	.	.	.	.	.	.	.	.
.	.	.	.	16ee\J	.	16ccc\J	.	.	.	.	.	.	.	.	.	.	.
8F\	.	.	.	16ee\L	.	16ccc\L	.	.	.	.	.	.	.	.	.	.	.
.	.	.	.	16ee\	.	16ccc\	.	.	.	.	.	.	.	.	.	.	.
8F\J	.	.	.	16ee\	.	16ccc\	.	.	.	.	.	.	.	.	.	.	.
.	.	.	.	16ee\J	.	16ccc\J	.	.	.	.	.	.	.	.	.	.	.
8G\L	X X 4	.	.	16ee\L	.	16bb\L	.	2G\	-lei-	2B\	-lei-	2g\	-ri-	.	.	2g/	2dd\
.	X X 3	.	.	16ee\	.	16bb\	.	.	.	.	.	.	.	.	.	.	.
8G\	.	.	.	16ee\	.	16bb\	.	.	.	.	.	.	.	.	.	.	.
.	.	.	.	16ee\J	.	16bb\J	.	.	.	.	.	.	.	.	.	.	.
8G\	.	.	.	16ee\L	.	16bb\L	.	.	.	.	.	.	.	.	.	.	.
.	.	.	.	16ee\	.	16bb\	.	.	.	.	.	.	.	.	.	.	.
8G\J	.	.	.	16ee\	.	16bb\	.	.	.	.	.	.	.	.	.	.	.
.	.	.	.	16ee\J	.	16bb\J	.	.	.	.	.	.	.	.	.	.	.
*	*	*	*	*Xtremolo	*	*Xtremolo	*	*	*	*	*	*	*	*	*	*	*
=47	=47	=47	=47	=47	=47	=47	=47	=47	=47	=47	=47	=47	=47	=47	=47	=47	=47
!	!	!	!LO:DY:rj	!	!	!	!	!	!	!	!	!	!	!	!	!	!
!	!	!	!LO:DY:b=2:t=p.	!	!	!	!	!	!	!	!	!	!	!	!	!	!
4C/	.	1ryy	p	4ee\	.	4ccc\	.	4C/	-son	4e\	-son	4g\	-e	4ee\	-ste	4cc\	4ee\
4r	.	.	.	16ccc\LL	.	(>16ccc\LL	.	4r	.	4r	.	4r	.	4r	.	4r	4r
.	.	.	.	16bb\	.	16bb\	.	.	.	.	.	.	.	.	.	.	.
.	.	.	.	16ccc\	.	16ccc\	.	.	.	.	.	.	.	.	.	.	.
.	.	.	.	16ddd\JJ	.	16ddd\JJ)	.	.	.	.	.	.	.	.	.	.	.
8r	.	.	.	8ccc\L	.	8ccc\L	.	2r	.	2r	.	2r	.	2r	.	2r	2r
8C/L	.	.	.	8ee\	.	8ee\	.	.	.	.	.	.	.	.	.	.	.
8D/	.	.	.	8ff\	.	8ff\	.	.	.	.	.	.	.	.	.	.	.
8E/J	X X 6	.	.	8gg\J	.	8gg\J	.	.	.	.	.	.	.	.	.	.	.
!	!	!	!	!	!	!	!	!LO:LB:g=original	!	!	!	!	!	!	!	!	!
=48	=48	=48	=48	=48	=48	=48	=48	=48	=48	=48	=48	=48	=48	=48	=48	=48	=48
4F\	.	1ryy	.	4aa\	.	4aa\	.	0r	.	0r	.	0r	.	0r	.	0r	0r
4r	.	.	.	16ccc\LL	.	(>16ccc\LL	.	.	.	.	.	.	.	.	.	.	.
.	.	.	.	16bb\	.	16bb\	.	.	.	.	.	.	.	.	.	.	.
.	.	.	.	16ccc\	.	16ccc\	.	.	.	.	.	.	.	.	.	.	.
!	!	!	!	!	!	!	!	!LO:TX:a:t=3	!	!LO:TX:a:t=3	!	!LO:TX:a:t=3.	!	!LO:TX:a:t=3	!	!LO:TX:a:t=3	!LO:TX:a:t=3
.	.	.	.	16ddd\JJ	.	16ddd\JJ)	.	.	.	.	.	.	.	.	.	.	.
8r	.	.	.	8ccc\L	.	8ccc\L	.	.	.	.	.	.	.	.	.	.	.
8F\L	.	.	.	8aa\	.	8aa\	.	.	.	.	.	.	.	.	.	.	.
8E\	X X 6	.	.	8gg\	.	8gg\	.	.	.	.	.	.	.	.	.	.	.
8D\J	X X 6	.	.	8ff\J	.	8ff\J	.	.	.	.	.	.	.	.	.	.	.
=49	=49	=49	=49	=49	=49	=49	=49	=49	=49	=49	=49	=49	=49	=49	=49	=49	=49
4C/	.	1ryy	.	4ee\	.	4ee\	.	.	.	.	.	.	.	.	.	.	.
4r	.	.	.	16cc\LL	.	16cc\LL	.	.	.	.	.	.	.	.	.	.	.
.	.	.	.	16b\	.	16b\	.	.	.	.	.	.	.	.	.	.	.
.	.	.	.	16cc\	.	16cc\	.	.	.	.	.	.	.	.	.	.	.
.	.	.	.	16dd\JJ	.	16dd\JJ	.	.	.	.	.	.	.	.	.	.	.
!	!	!	!	!	!	!LO:TX:a:t=P:problem=mixed beam	!	!	!	!	!	!	!	!	!	!	!
8r	.	.	.	8cc/L	.	8cc\L	.	.	.	.	.	.	.	.	.	.	.
8C/L	.	.	.	8e/	.	8e/	.	.	.	.	.	.	.	.	.	.	.
8D/	.	.	.	8f/	.	8f/	.	.	.	.	.	.	.	.	.	.	.
8E/J	X X 6	.	.	8g/J	.	8g/J	.	.	.	.	.	.	.	.	.	.	.
!LO:LB:g=original	!	!LO:LB:g=original	!	!LO:LB:g=original	!	!	!	!	!	!	!	!	!	!	!	!	!
=50	=50	=50	=50	=50	=50	=50	=50	=50	=50	=50	=50	=50	=50	=50	=50	=50	=50
!	!	!	!	!	!	!	!	!	!	!	!	!	!	!LO:N:vis=2	!	!	!
!	!	!	!	!	!	!	!	!LO:N:vis=2	!	!	!	!	!	!	!	!	!
4F\	.	1ryy	.	4a\	.	4a\	.	1r	.	1r	.	1r	.	1r	.	1r	1r
4r	.	.	.	16cc\LL	.	16cc\LL	.	.	.	.	.	.	.	.	.	.	.
.	.	.	.	16b\	.	16b\	.	.	.	.	.	.	.	.	.	.	.
.	.	.	.	16cc\	.	16cc\	.	.	.	.	.	.	.	.	.	.	.
.	.	.	.	16dd\JJ	.	16dd\JJ	.	.	.	.	.	.	.	.	.	.	.
8r	.	.	.	8cc/L	.	8cc/L	.	.	.	.	.	.	.	.	.	.	.
8F\L	.	.	.	8a/	.	8a/	.	.	.	.	.	.	.	.	.	.	.
8E\	X X 6	.	.	8g/	.	8g/	.	.	.	.	.	.	.	.	.	.	.
8D\J	X X 6	.	.	8f/J	.	8f/J	.	.	.	.	.	.	.	.	.	.	.
!LO:TX:b:i:t=Tutti	!	!	!	!	!	!	!	!	!	!	!	!	!	!	!	!	!
!	!	!	!	!	!	!	!	!	!	!	!	!	!	!	!	!LO:LB:g=original	!
=51	=51	=51	=51	=51	=51	=51	=51	=51	=51	=51	=51	=51	=51	=51	=51	=51	=51
!	!	!	!	!LO:TX:a:t=P:problem=mixed beam	!	!LO:TX:a:t=P:problem=mixed beam	!	!	!	!	!	!	!	!	!	!	!
8C\L	.	1ryy	.	8e/L	.	(>8e/L	.	4r	.	4r	.	4r	.	4r	.	2r	2r
8C\	.	.	.	8gg\	.	8gg\J)	.	.	.	.	.	.	.	.	.	.	.
!	!	!	!	!	!	!	!	!	!	!	!	!LO:TX:a:t=P:problem=w źródle brak "e-"	!	!	!	!	!
8F\	X X 6_	.	.	8a/	.	8a\L	.	4F\	Ky-	4d\	Ky-	4a\	lei-	4dd\	Chri-	.	.
8F\J	.	.	.	8dd/J	.	8ff\J	.	.	.	.	.	.	.	.	.	.	.
!LO:TX:a:t=P:problem=mixed beam	!	!	!	!	!	!	!	!	!	!	!	!	!	!	!	!	!
8G\L	X X 4	.	.	4cc\	.	4ee\	.	2G\	-ri-	4c\	-rie	2g\	-son	4ee\	.	4cc\	4ee\
8G\	.	.	.	.	.	.	.	.	.	.	.	.	.	.	.	.	.
8GG/	X X 3	.	.	4b\	.	4dd\	.	.	.	4B\	.	.	.	4dd\	.	4g/	4dd\
8GG/J	.	.	.	.	.	.	.	.	.	.	.	.	.	.	.	.	.
!	!	!	!	!	!	!	!	!	!	!	!	!	!	!	!	!	!LO:LB:g=original
=52	=52	=52	=52	=52	=52	=52	=52	=52	=52	=52	=52	=52	=52	=52	=52	=52	=52
4C/	.	1ryy	.	4cc\	.	4cc\	.	4C/	-e	4c\	e-	4g\	.	4cc\	-ste	4e/	4cc\
4G\	.	.	.	4gg\	.	4gg\	.	4G\	e-	4g\	.	4g\	.	4gg\	e-	4r	4r
!LO:TX:a:t=P:problem=mixed beam	!	!	!	!	!	!LO:TX:a:t=P:problem=mixed beam	!	!LO:TX:a:t=P:problem=mixed beam	!	!LO:TX:a:t=P:problem=mixed beam	!	!LO:TX:a:t=P:problem=mixed beam	!	!LO:TX:a:t=P:problem=mixed beam	!	!	!
!	!	!	!	!LO:TX:a:t=P:problem=mixed beam	!	!	!	!	!	!	!	!	!	!	!	!	!
8E\L|	.	.	.	8ee\L	.	8ee\L	.	8E\L	.	8e\L	.	8e\L	Ky-	8ee\L	-lei-	2r	2r
8G\|	.	.	.	8gg\	.	8gg\	.	8G\	.	8g\	.	8g\	.	8gg\	.	.	.
8GG/|	.	.	.	8g/	.	8g/	.	8GG/	-lei-	8G/	-lei-	8G/	-ri-	8g/	.	.	.
8BB/J|	.	.	.	8b/J	.	8b/J	.	8BB/J	.	8B/J	.	8B/J	-e	8b/J	.	.	.
!	!	!	!	!	!	!	!	!	!	!	!	!	!	!LO:LB:g=original	!	!	!
=53	=53	=53	=53	=53	=53	=53	=53	=53	=53	=53	=53	=53	=53	=53	=53	=53	=53
!	!	!	!	!	!	!	!	!	!	!	!	!LO:TX:a:t=P:problem=w źródle brak "e-"	!	!	!	!	!
!	!	!	!	!LO:TX:a:t=P:problem=mixed beam	!	!LO:TX:a:t=P:problem=mixed beam	!	!	!	!	!	!	!	!	!	!	!
4C/	.	1ryy	.	8cc\L	.	(>8cc\L	.	4C/	-son	4c\	-son	4c\	-lei-	4cc\	-son	0r	0r
.	.	.	.	8ee\	.	8ee\	.	.	.	.	.	.	.	.	.	.	.
8r	.	.	.	8g/	.	8g/	.	8r	.	8r	.	8r	.	8r	.	.	.
8G\|	.	.	.	8g/J	.	8gg\J)	.	8G\	.	8g\	Ky-	8g\	-son	8gg\	.	.	.
!	!	!	!	!	!	!	!	!LO:TX:a:t=P:problem=mixed beam	!	!LO:TX:a:t=P:problem=mixed beam	!	!	!	!	!	!	!
!	!	!	!	!	!	!	!	!	!	!	!	!	!	!LO:TX:a:t=P:problem=mixed beam	!	!	!
!	!	!	!	!	!	!	!	!	!	!	!	!LO:TX:a:t=P:problem=mixed beam	!	!	!	!	!
!	!	!	!	!	!	!LO:LB:g=original	!	!	!	!	!	!	!	!	!	!	!
!	!	!	!	!	!	!LO:TX:a:t=P:problem=mixed beam	!	!	!	!	!	!	!	!	!	!	!
!LO:TX:a:t=P:problem=mixed beam	!	!	!	!	!	!	!	!	!	!	!	!	!	!	!	!LO:TX:a:t=2	!LO:TX:a:t=2
8E\L|	.	.	.	8e/L	.	(>8ee\L	.	8E\L	.	8e\L	.	8e\L	e-	8ee\L	-Ky-	.	.
8G\|	.	.	.	8g/	.	8gg\)	.	8G\	Ky-	8g\	-ri-	8g\	.	8gg\	-ri-	.	.
8GG/|	.	.	.	8G/	.	8g'/	.	8GG/	-ri-	8G/	-e	8G/	-lei-	8g/	-e	.	.
8BB/J|	.	.	.	8B/J	.	8b'/J	.	8BB/J	.	8B/J	e-	8B/J	.	8b/J	.	.	.
!	!	!	!	!	!	!	!	!	!	!LO:LB:g=original	!	!	!	!	!	!	!
=54	=54	=54	=54	=54	=54	=54	=54	=54	=54	=54	=54	=54	=54	=54	=54	=54	=54
!	!	!	!	!	!	!LO:TX:a:t=P:problem=mixed beam	!	!	!	!	!	!	!	!	!	!	!
4C/	.	1ryy	.	8c/L	.	(>8cc\L	.	4C/	-e	4c\	-lei-	4c\	-son	4cc\	e	.	.
.	.	.	.	8e/	.	8ee\)	.	.	.	.	.	.	.	.	.	.	.
8r	.	.	.	8G/	.	8g'/	.	8r	.	8r	.	8r	.	8r	.	.	.
8G\|	.	.	.	8g/J	.	8gg'\J	.	8G\	e-	8g\	-son	8g\	e-	8gg\	e-	.	.
!LO:LB:g=original	!	!	!	!	!	!	!	!	!	!	!	!	!	!	!	!	!
!LO:TX:a:t=P:problem=mixed beam	!	!	!	!	!	!LO:TX:a:t=P:problem=mixed beam	!	!	!	!LO:TX:a:t=P:problem=mixed beam	!	!LO:TX:a:t=P:problem=mixed beam	!	!LO:TX:a:t=P:problem=mixed beam	!	!	!
!	!	!	!	!	!	!	!	!LO:TX:a:t=P:problem=mixed beam	!	!	!	!	!	!	!	!	!
8E\L|	.	.	.	8e/L	.	(>8ee\L	.	8E\L	-lei-	8e\L	e-	8e\L	-lei-	8ee\L	-lei-	.	.
8G\|	.	.	.	8g/	.	8gg\)	.	8G\	.	8g\	.	8g\	.	8gg\	.	.	.
8GG/|	.	.	.	8G/	.	8g'/	.	8GG/	-son	8G/	-lei-	8G/	.	8g/	.	.	.
!	!	!	!	!	!	!	!	!	!LO:SIC:s=e-lei-	!	!	!	!	!	!	!	!
8BB/J|	.	.	.	8B/J	.	8b'/J	.	8BB/J	lei-	8B/J	.	8B/J	.	8b/J	.	.	.
=55	=55	=55	=55	=55	=55	=55	=55	=55	=55	=55	=55	=55	=55	=55	=55	=55	=55
4C/	X 5_ 3_	1ryy	.	4c/	.	4cc 4e 4G/	.	4C/	-son	4c\	-son	4c\	-son	4cc\	-son	4e/	4cc\
4C/	.	.	.	4e 4G/	.	4cc 4e 4G/	.	4r	.	4r	.	4r	.	4r	.	4e/	4cc\
4C/	.	.	.	4e 4G/	.	4cc 4e 4G/	.	2r	.	2r	.	2r	.	2r	.	4e/	4cc\
4r	X X X	.	.	4r	.	4r	.	.	.	.	.	.	.	.	.	4r	4r
==;	==;	==;	==	==;	==	==;	==	==;	==	==;	==	==;	==	==;	==	==;	==;
*-	*-	*-	*-	*-	*-	*-	*-	*-	*-	*-	*-	*-	*-	*-	*-	*-	*-
!!!system-decoration: [g1][g2][g3]{(s9,s10)}
!!!RDF**kern: > = above
!!!RDF**kern: < = below
!!!RDF**kern: | = vertical stroke
!!!EED: Antoni Szymański
!!!EEV: 2020-11-24
!!!ENC: Tomasz Grochalski
!!!END: 2020-06-07
